!! 00046] TT[KA
!! NN
!!!OTL: Siji ge(Lied der Jahrezeiten)
!!!ARE: Asia, China,ˇnan Hunan, Pingjiang
!! Ethnic Group: Han
!! I, 518
!!!SCT: C0068
!!!YEM: Copyright 1995, estate of Helmut Schaffrath.
**kern
*ICvox
*Ivox
*M4/4
*k[b-]
*F:
{8f
8f
8d
8c
16cc
16cc
16g
16a
4cc
=1
8cc
16cc
16ff
16dd
16cc
8a
2g}
=2
{8a
16g
16a
8.dd
16cc
8cc
16cc
16a
8g
16f
16d
=3
16f
16d
16a
16cc
16g
16f
8d
2c}
=4
{8f
16c
16d
4f
16g
16f
16g
16cc
4a
=5
16g
16a
16g
16f
8c
16f
16g
2d}
=6
{16cc
16cc
16g
16a
8.dd
16cc
8cc
16a
16cc
8g
16f
16d
=7
16f
16d
8f
8r
16cc
16a
8.g
16a
16f
16g
16f
16d
=8
1c}
==
!!!AGN: Xiaodiao, Qiao shuzhuang, Shidiao, MengjiangnÅ diao. Geming lishi minge
!! neues Volkslied.
!!    Pinyin-Text des gleichen Titels aus Qinghai vorhanden.
!!!ONB: ESAC (Essen Associative Code) Database: CHINA
!!!AMT: simple quadruple
!!!AIN: vox
!!!EED: Helmut Schaffrath
!!!EEV: 1.0
*-
